X: 35
T:Gan Ainm
M:4/4
L:1/8
R:Highland
D:Session tape - Derrygonelly, Fermanagh 1983
Z:Bernie Stocks
K:A
A3c e2c2 | d3e f2ed |1 cAeA fAeA | cBBA Bdcd :|2 ceae ceBe | c2A2 A4 ::\
a2fe e2c2 | d3e faed |1 cAeA fAeA | cBBA Bdcd :|2 ceae ceBe | c2A2 A4 :|
<end>
<start>
